!!!!SEGMENT: pl-kk--i-533--003_studzinski-piotr--nr-3-in-te-domine-speravi.krn
!!!cenid: 18xx:4472
!!!COM: Studziński, Piotr
!!!COM-rismID: pe50044409
!!!CDT: 1825/10/16-1869/04/20
!!!CNT: Polish
!!!OTL: Nr 3. In te Domine speravi
!!!PDT:
!!!AGN: Sacred
!!!YEC: Copyright 2022 Narodowy Instytut Fryderyka Chopina (https://polishscores.org)
!!!YEM: License CC-BY-4.0 (https://creativecommons.org/licenses/by/4.0)
!!!SMS-siglum: PL-Kk
!!!SMS-shelfmark: I.533
!!!SMS-variant: Soprano PL-Kk KK.I.533:1; Alto PL-Kk KK.I.533:6v; Tenor PL-Kk KK.I.533:10v-10r; Basſo PL-Kk KK.I.533:14v-14r.
!!!SMS-altvar: Partytura PL-Kk KK.I.533:19-20v.
!!!SMS-shelfwork: 003 W
!!!NIFC-rismSourceID: 1001210519
!!!NIFC-rismChildID: 1001210530
!!!NIFC-islandoraID: pl-kk:16805
!!!URL-pdf-islandora: https://repozytorium.nifc.pl/islandora/object/pl-kk%3A16805/datastream/PDF/view
!!!URL-scan: https://polish.musicsources.pl/pl/lokalizacje/galeria/rekopisy/7160/1 @EN{Scan on Polish Music Sources Website} @PL{Skany w portalu Dziedzictwo Muzyki Polskiej w otwartym dostępie}
!!!IIIF:
!!!ONB-nifc:
!!!OMD: Allegretto
!!!AIN: 1 alto 1 bass 1 soprn 1 tenor
!!!key: F
**kern	**text	**dynam	**kern	**text	**dynam	**kern	**text	**dynam	**kern	**text	**dynam
*part4	*part4	*part4	*part3	*part3	*part3	*part2	*part2	*part2	*part1	*part1	*part1
*staff4	*staff4	*	*staff3	*staff3	*	*staff2	*staff2	*	*staff1	*staff1	*
*I"Basſo	*	*	*I"Tenor	*	*	*I"Alto	*	*	*I"Soprano	*	*
*I'B	*	*	*I'T	*	*	*I'A	*	*	*I'S	*	*
*Ibass	*	*	*Itenor	*	*	*Ialto	*	*	*Isoprn	*	*
*ICvox	*	*	*ICvox	*	*	*ICvox	*	*	*ICvox	*	*
*clefF4	*	*	*clefC4	*	*	*clefC3	*	*	*clefG2	*	*
*k[b-]	*	*	*k[b-]	*	*	*k[b-]	*	*	*k[b-]	*	*
*F:	*	*	*F:	*	*	*F:	*	*	*F:	*	*
*M3/4	*	*	*M3/4	*	*	*M3/4	*	*	*M3/4	*	*
!!LO:TX:t=P:problem=all\right
!	!	!LO:DY:b:rj	!	!	!LO:DY:b:rj	!	!	!LO:DY:b:rj	!	!	!LO:DY:b:rj
8.F\	In	f	8.F/	In	f	8.F/	In	f	8.f/	In	f
16A\	te	.	16A/	te	.	16A/	te	.	16a/	te	.
=1	=1	=1	=1	=1	=1	=1	=1	=1	=1	=1	=1
4..c\	Do-	.	4..c\	Do-	.	4..c\	Do-	.	4..cc\	Do-	.
16c\	-mi-	.	16c\	-mi-	.	16c\	-mi-	.	16cc\	-mi-	.
8.d\	-ne	.	8.d\	-ne	.	8.d\	-ne	.	8.dd\	-ne	.
16e\	spe-	.	16e\	spe-	.	16e\	spe-	.	16ee\	spe-	.
=2	=2	=2	=2	=2	=2	=2	=2	=2	=2	=2	=2
4f\	-ra-	.	4f\	-ra-	.	4f\	-ra-	.	4ff\	-ra-	.
4F\	-vi	.	4F/	-vi	.	4F/	-vi	.	4f/	-vi	.
8.D\	In	.	8.D/	In	.	8.D/	in	.	8.d/	In	.
16F\	te	.	16F/	te	.	16F/	te	.	16f/	te	.
=3	=3	=3	=3	=3	=3	=3	=3	=3	=3	=3	=3
4..A\	Do-	.	4..A\	Do-	.	4..A/	Do-	.	4..a\	Do-	.
16A\	-mi-	.	16A\	-mi-	.	16A/	-mi-	.	16a\	-mi-	.
8.Bn\	-ne	.	8.Bn\	-ne	.	8.Bn/	-ne	.	8.bn\	-ne	.
16c#X\	spe-	.	16c#X\	spe-	.	16c#X/	spe-	.	16cc#X\	spe-	.
!LO:LB:g=original	!	!	!	!	!	!	!	!	!	!	!
=4	=4	=4	=4	=4	=4	=4	=4	=4	=4	=4	=4
4d\	-ra-	.	4d\	-ra-	.	4d\	-ra-	.	4dd\	-ra-	.
4D\	-vi	.	4D/	-vi	.	4d\	-vi	.	4d/	-vi	.
4r	.	.	4r	.	.	4r	.	.	4r	.	.
!	!	!	!LO:LB:g=original	!	!	!	!	!	!LO:LB:g=original	!	!
=5	=5	=5	=5	=5	=5	=5	=5	=5	=5	=5	=5
!	!	!LO:DY:b:rj	!	!	!LO:DY:b:rj	!	!	!LO:DY:b:rj	!	!	!LO:DY:b:rj
4B-\	non	p	4B-\	non	p	4g\	non	p	4dd\	non	p
4r	.	.	4r	.	.	4r	.	.	4r	.	.
4A\	con-	.	4A\	con-	.	4g\	con-	.	4cc\	con-	.
!	!	!	!	!	!	!LO:LB:g=original	!	!	!	!	!
=6	=6	=6	=6	=6	=6	=6	=6	=6	=6	=6	=6
4G\	-fun-	.	4d\	-fun-	.	4f\	-fun-	.	4bn\	-fun-	.
4E\	-dar	.	4c\	-dar	.	4g\	-dar	.	4b-X\	-dar	.
8F\	in	.	8c\	in	.	8f\	in	.	8a/	in	.
8F\	e-	.	8c\	e-	.	8f\	e-	.	8a/	e-	.
=7	=7	=7	=7	=7	=7	=7	=7	=7	=7	=7	=7
*	*	*	*2\right	*	*	*2\right	*	*	*	*	*
2BB-/	-ter-	.	(2d\	-ler-	.	2.f\	-ter-	.	2.g/	-ter-	.
4GG/	.	.	4Bn\)	.	.	.	.	.	.	.	.
=8	=8	=8	=8	=8	=8	=8	=8	=8	=8	=8	=8
4C/	-num	.	4c\	-num	.	4e\	-num	.	4g/	-num	.
4r	.	.	4r	.	.	4r	.	.	4r	.	.
8c\	in	.	8c\	in	.	8e\	in	.	8g/	in	.
8c\	ju-	.	8c\	ju-	.	8e\	ju-	.	8g/	ju-	.
=9	=9	=9	=9	=9	=9	=9	=9	=9	=9	=9	=9
*2\right	*	*	*	*	*	*	*	*	*	*	*
2B-\	-sti-	.	2c\	-sti-	.	2e\	-sti-	.	2g/	-sti-	.
8B-\	-ti-	.	8c\	-ti-	.	8e\	-ti-	.	8a/	-ti-	.
8B-\	-a	.	8c\	-a	.	8e\	-a	.	8b-/	-a	.
=10	=10	=10	=10	=10	=10	=10	=10	=10	=10	=10	=10
4A\	tu-	.	4c\	tu-	.	4f\	tu-	.	(8cc\	tu-	.
.	.	.	.	.	.	.	.	.	4ff\)	.	.
4A\	-a	.	4c\	-a	.	4f\	-a	.	.	.	.
.	.	.	.	.	.	.	.	.	4cc\	-a	.
4r	.	.	4r	.	.	4r	.	.	.	.	.
.	.	.	.	.	.	.	.	.	8r	.	.
!LO:LB:g=original	!	!	!LO:LB:g=original	!	!	!	!	!	!	!	!
=11	=11	=11	=11	=11	=11	=11	=11	=11	=11	=11	=11
2E\	li-	.	2c\	li-	.	4g\	li-	.	(4b-\	li-	.
.	.	.	.	.	.	4b-\	.	.	4dd\)	.	.
8E\	-be-	.	8c\	-be-	.	8a\	-ve-	.	8cc\	-be-	.
8E\	-ra	.	8c\	-ra	.	8g\	-ra	.	8b-\	-ra	.
!	!	!	!	!	!	!	!	!	!LO:LB:g=original	!	!
=12	=12	=12	=12	=12	=12	=12	=12	=12	=12	=12	=12
2F\	me	.	2c\	me	.	(4g\	me	.	(4b-\	me	.
.	.	.	.	.	.	4f\)	.	.	4a\)	.	.
4r	.	.	4r	.	.	4r	.	.	4r	.	.
!	!	!	!	!	!	!LO:LB:g=original	!	!	!	!	!
=13	=13	=13	=13	=13	=13	=13	=13	=13	=13	=13	=13
4C/	et	.	4B-\	et	.	2e\	e-	.	(4g/	et	.
4C/	e-	.	4d\	e-	.	.	.	.	4b-/)	e-	.
8C/	-ri-	.	8c\	-ri-	.	8e\	-ri-	.	8a/	-ri-	.
8C/	-pe	.	8B-\	-pe	.	8e\	-pe	.	8g/	-pe	.
=14	=14	=14	=14	=14	=14	=14	=14	=14	=14	=14	=14
2D\	me	.	(4B-\	me	.	2d\	me	.	(4g/	me	.
.	.	.	4A\)	.	.	.	.	.	4f/)	.	.
4r	.	.	4r	.	.	4r	.	.	4r	.	.
=15	=15	=15	=15	=15	=15	=15	=15	=15	=15	=15	=15
!	!	!LO:HP:b	!	!	!LO:HP:b	!	!	!LO:HP:b	!	!	!LO:HP:a
4B-\	in	<	4d\	in-	<	4f\	in-	<	4dd\	in-	<
4B-\	cli-	.	4d\	-cli-	.	4f\	-cli-	.	4g/	-cli-	.
4B-\	-na	[	4d\	-na	[	4f\	-na	[	4g/	-na	[
=16	=16	=16	=16	=16	=16	=16	=16	=16	=16	=16	=16
!	!	!LO:HP:b	!	!	!LO:HP:b	!	!	!LO:HP:b	!	!	!LO:HP:b
2.Bn\	me	<	2.d\	me	<	2.f\	me	<	2.a-X/	me	<
=17	=17	=17	=17	=17	=17	=17	=17	=17	=17	=17	=17
!	!	!LO:DY:b:rj	!	!	!LO:DY:b:rj	!	!	!LO:DY:b:rj	!	!	!LO:DY:b:rj
4c\	au-	p	(4c\	au-	p	(4f\	au-	p	(4an/	au-	p
4C/	.	.	4G/)	.	.	4e\)	.	.	8cc/L	.	.
.	.	.	.	.	.	.	.	.	8b-/J)	.	.
4C/	-rem	.	4B-\	-rem	.	4e\	-rem	.	8g/L	-rem	.
.	.	.	.	.	.	.	.	.	8e/J	.	.
!LO:LB:g=original	!	!	!LO:LB:g=original	!	!	!	!	!	!	!	!
=18	=18	=18	=18	=18	=18	=18	=18	=18	=18	=18	=18
4F\	tu-	.	4B-\	tu-	.	4e\	tu-	.	4g/	tu-	.
4F\	-am	.	4A\	-am	.	4f\	-am	.	4f/	-am	.
4r	.	.	4r	.	.	4r	.	.	4r	.	.
!	!	!	!	!	!	!	!	!	!LO:LB:g=original	!	!
=19	=19	=19	=19	=19	=19	=19	=19	=19	=19	=19	=19
!	!	!LO:DY:b:rj	!	!	!LO:DY:b:rj	!	!	!LO:DY:b:rj	!	!	!LO:DY:b:rj
4D\	et	p	4d\	et	p	4f\	et	p	4a/	et	p
4F\	sal-	.	4A\	sal-	.	4d\	sal-	.	4a/	sal-	.
4D\	-va	.	4d\	-va	.	4f\	-va	.	4dd\	-va	.
=20	=20	=20	=20	=20	=20	=20	=20	=20	=20	=20	=20
2A\	me	.	(4f\	me	.	2a\	me	.	(4dd\	me	.
.	.	.	4e\)	.	.	.	.	.	4cc#X\)	.	.
4r	.	.	4r	.	.	4r	.	.	4r	.	.
!	!	!	!	!	!	!LO:LB:g=original	!	!	!	!	!
=21	=21	=21	=21	=21	=21	=21	=21	=21	=21	=21	=21
4A\	et	.	4c#X\	et	.	4e\	et	.	4a/	et	.
4c#X\	sal-	.	4e\	sal-	.	4g\	sal-	.	4a/	sal-	.
4A\	-va	.	4c#\	-va	.	4g\	-va	.	4ee\	-va	.
=22	=22	=22	=22	=22	=22	=22	=22	=22	=22	=22	=22
2D\	me	.	2A\	me	.	2f\	me	.	(4ee\	me	.
.	.	.	.	.	.	.	.	.	4dd\)	.	.
4r	.	.	4r	.	.	4r	.	.	4r	.	.
=23	=23	=23	=23	=23	=23	=23	=23	=23	=23	=23	=23
!LO:N:vis=16D\	!	!LO:DY:b:rj	!LO:N:vis=16A\	!	!LO:DY:b:rj	!	!	!LO:DY:b:rj	!LO:N:vis=16ff\	!	!LO:DY:b:rj
8D\	e-	f	8A\	e-	f	8d\	e-	f	8ff\	e-	f
!LO:N:vis=16E\	!	!	!LO:N:vis=16c#X\	!	!	!	!	!	!LO:N:vis=16ee\	!	!
8E\	-sto	.	8c#X\	-sto	.	8e\	-sto	.	8ee\	-sto	.
4F\	mi-	.	4d\	mi-	.	4a\	mi-	.	4dd\	mi-	.
!LO:N:vis=16G\	!	!	!LO:N:vis=16f\	!	!	!	!	!	!LO:N:vis=16cc\	!	!
8G\	-hi	.	8f\	-hi	.	8g\	-hi	.	8cc\	-hi	.
!LO:N:vis=16G\	!	!	!LO:N:vis=16f\	!	!	!	!	!	!LO:N:vis=16b-\	!	!
8G\	in	.	8f\	in	.	8g\	in	.	8b-\	in	.
=24	=24	=24	=24	=24	=24	=24	=24	=24	=24	=24	=24
(4A\	De-	.	(4d\	De-	.	(4f\	De-	.	2a/	De-	.
4F\)	.	.	4A\)	.	.	4d\)	.	.	.	.	.
4G\	-um	.	4d\	-um	.	4e\	-um	.	4b-/	-um	.
!LO:LB:g=original	!	!	!LO:LB:g=original	!	!	!	!	!	!	!	!
=25	=25	=25	=25	=25	=25	=25	=25	=25	=25	=25	=25
!	!	!LO:DY:b:rj	!	!	!LO:DY:b:rj	!	!	!LO:DY:b:rj	!	!	!LO:DY:b:rj
2A\	pro-	p	(4d\	pro-	p	(4f\	pro-	p	(4a/	pro-	p
.	.	.	4A\)	.	.	4d\)	.	.	4f/)	.	.
4AA/	-te-	.	4G\	-te-	.	4c#X\	-te-	.	4e/	-te-	.
!	!	!	!	!	!	!	!	!	!LO:LB:g=original	!	!
=26	=26	=26	=26	=26	=26	=26	=26	=26	=26	=26	=26
4D\	-cto-	.	4A\	-cto-	.	4d\	-cto-	.	4f/	-cto-	.
4D\	-rum	.	4F/	-rum	.	4A/	-rum	.	4d/	-rum	.
4r	.	.	4r	.	.	4r	.	.	4r	.	.
=27	=27	=27	=27	=27	=27	=27	=27	=27	=27	=27	=27
!	!	!LO:DY:b:rj	!	!	!LO:DY:b:rj	!	!	!LO:DY:b:rj	!LO:N:vis=16ff\	!	!LO:DY:b:rj
16D\	et	f	8A\	Et	f	8a\	Et	f	8ff\	Et	f
16E\	in	.	.	.	.	.	.	.	.	.	.
!	!	!	!	!	!	!	!	!	!LO:N:vis=16ee\	!	!
4F\	lo-	.	8c#X\	in	.	8a\	in	.	8ee\	in	.
.	.	.	4d\	lo-	.	4a\	lo-	.	4dd\	lo-	.
4.G\	-cum	.	.	.	.	.	.	.	.	.	.
.	.	.	4d\	-cum	.	4g\	-cum	.	(8cc\	-cum	.
.	.	.	.	.	.	.	.	.	8b-\)	.	.
!	!	!	!	!	!	!LO:LB:g=original	!	!	!	!	!
=28	=28	=28	=28	=28	=28	=28	=28	=28	=28	=28	=28
4A\	ma-	.	4d\	ma-	.	4f\	ma-	.	4.a/	ma-	.
4F\	-ni-	.	4A\	-ni-	.	4d\	-ni-	.	.	.	.
.	.	.	.	.	.	.	.	.	8a/	-ni-	.
4G\	-tum	.	4d\	-tum	.	4e\	-tum	.	4b-/	-tum	.
=29	=29	=29	=29	=29	=29	=29	=29	=29	=29	=29	=29
!	!	!LO:DY:b:rj	!	!	!LO:DY:b:rj	!	!	!	!	!	!LO:DY:b:rj
4A\	et	p	4d\	et	p	4f\	et	.	4a/	et	p
4AA/	sal-	.	4A\	sal-	.	4d\	sal-	.	4f/	sal-	.
8AA/	-vum	.	8G/	-vum	.	8c#X\	-vum	.	8e/	-vum	.
8AA/	me	.	8A/	me	.	8c#\	me	.	8f/	me	.
=30	=30	=30	=30	=30	=30	=30	=30	=30	=30	=30	=30
8.D\	fa-	.	8.G/	fa-	.	8.c#X\	fa-	.	8.e/	fa-	.
16D\	-ci-	.	16F/	-ci-	.	16d\	-ci-	.	16d/	-ci-	.
4D\	-as	.	4F/	-es	.	4d\	-es	.	4d/	-es	.
4r	.	.	4r	.	.	4r	.	.	4r	.	.
!LO:LB:g=original	!	!	!LO:LB:g=original	!	!	!	!	!	!	!	!
=31	=31	=31	=31	=31	=31	=31	=31	=31	=31	=31	=31
!	!	!	!	!	!LO:DY:b:rj	!	!	!LO:DY:b:rj	!	!	!
2D\	Quo-	.	2A\	Quo-	p	2d\	Quo-	p	2d/	Quo-	.
8D\	-ni-	.	8A\	-ni-	.	8d\	-ni-	.	8d/	-ni-	.
8D\	-am	.	8A\	-am	.	8d\	-am	.	8d/	-am	.
=32	=32	=32	=32	=32	=32	=32	=32	=32	=32	=32	=32
!	!	!LO:HP:b	!	!	!LO:HP:b	!	!	!	!	!	!LO:HP:b
2D\	fir-	<	2d\	fir-	<	2f\	fir-	.	2a/	fir-	<
4d\	-ma-	[	8f\	-ma-	[	4a\	-ma-	.	4dd\	-ma-	[[
.	.	.	8r	.	.	.	.	.	.	.	.
!	!	!	!	!	!	!	!	!	!LO:LB:g=original	!	!
=33	=33	=33	=33	=33	=33	=33	=33	=33	=33	=33	=33
*	*	*	*	*	*	*	*	*	*2\right	*	*
!	!	!	!	!	!LO:DY:b:rj	!LO:N:vis=2bn\	!	!LO:DY:b:rj	!	!	!LO:DY:b:rj
!	!	!	!	!	!	!LO:TX:t=P:problem=niepełna miara taktu	!	!	!	!	!
2.G#X\	-men-	.	2.d\	-men-	f	2.bn\	-men-	f	2.ff\	-men-	f
.	.	.	.	.	.	.	.	.	.	.	.
=34	=34	=34	=34	=34	=34	=34	=34	=34	=34	=34	=34
4Bn\	-tum	.	4f\	-tum	.	4g#X\	-tum	.	4dd\	-tum	.
4r	.	.	4r	.	.	4r	.	.	4r	.	.
4r	.	.	4r	.	.	4r	.	.	4r	.	.
!	!	!	!	!	!	!LO:LB:g=original	!	!	!	!	!
=35	=35	=35	=35	=35	=35	=35	=35	=35	=35	=35	=35
!LO:N:xstem	!	!	!	!	!LO:DY:b:rj	!	!	!LO:DY:b:rj	!	!	!
4c\	fir-	.	(4c\	fir-	f	2a\	fir-	f	(4cc\	fir-	.
4A\	.	.	4A/)	.	.	.	.	.	4a\)	.	.
4F\	-ma-	.	4F/	-ma-	.	4f\	-ma-	.	4f\	-ma-	.
=36	=36	=36	=36	=36	=36	=36	=36	=36	=36	=36	=36
(4C\	-men-	.	(4C/	-men-	.	(4c\	-men-	.	(4c/	-men-	.
4F\)	.	.	4F/)	.	.	4f\)	.	.	4f/)	.	.
4A\	-tum	.	4A\	-tum	.	4a\	-tum	.	4a/	-tum	.
=37	=37	=37	=37	=37	=37	=37	=37	=37	=37	=37	=37
2.c\	me-	.	(4f\	me-	.	2.g\	me-	.	2.cc\	me-	.
.	.	.	8e\L	.	.	.	.	.	.	.	.
.	.	.	8d\J	.	.	.	.	.	.	.	.
.	.	.	4e\)	.	.	.	.	.	.	.	.
!	!	!	!LO:LB:g=original	!	!	!	!	!	!	!	!
=38	=38	=38	=38	=38	=38	=38	=38	=38	=38	=38	=38
8F\	-um	.	8c\	-um	.	8f\	-um	.	8a/	-um	.
8r	.	.	8r	.	.	8r	.	.	8r	.	.
!	!	!	!	!	!LO:DY:b:rj	!	!	!LO:DY:b:rj	!	!	!LO:DY:b:rj
4F\	et	p	4c\	et	p	4f\	et	p	4a/	et	p
4F\	re-	.	4c\	re-	.	4f\	re-	.	4a/	re-	.
!LO:LB:g=original	!	!	!	!	!	!	!	!	!	!	!
=39	=39	=39	=39	=39	=39	=39	=39	=39	=39	=39	=39
4.E\	-fu-	.	4.c#X\	-fu-	.	2g\	-fu-	.	4.a/	-fu-	.
8E\	-gi-	.	8c#\	-gi-	.	.	.	.	8b-/	-gi-	.
4E\	-um	.	4c#\	-um	.	4g\	-gium	.	4a/	-um	.
=40	=40	=40	=40	=40	=40	=40	=40	=40	=40	=40	=40
4E\	me-	.	4c#X\	me-	.	4g\	me-	.	4a/	me-	.
4E\	-um	.	4c#\	-um	.	4g\	-um	.	4a/	-um	.
4E\	es	.	4c#\	es	.	4g\	es	.	4a/	es	.
!	!	!	!	!	!	!	!	!	!LO:LB:g=original	!	!
=41	=41	=41	=41	=41	=41	=41	=41	=41	=41	=41	=41
2.D\	tu	.	2.d\	tu	.	2.f\	tu	.	(4.a/	tu	.
.	.	.	.	.	.	.	.	.	8b-/	.	.
.	.	.	.	.	.	.	.	.	4a/)	.	.
=42	=42	=42	=42	=42	=42	=42	=42	=42	=42	=42	=42
2Bn\	et	.	2d\	et	.	2f\	et	.	2g/	et	.
4B\	re-	.	4d\	re-	.	4f\	re-	.	4g/	re-	.
!	!	!	!	!	!	!LO:LB:g=original	!	!	!	!	!
=43	=43	=43	=43	=43	=43	=43	=43	=43	=43	=43	=43
4B-X\	-fu-	.	4c\	-fu-	.	4e\	-fu-	.	4g/	-fu-	.
4B-\	-gi-	.	4c\	-gi-	.	4e\	-gi-	.	4dd\	-gi-	.
4A\	-um	.	4c\	-um	.	4f\	-um	.	4cc\	-um	.
=44	=44	=44	=44	=44	=44	=44	=44	=44	=44	=44	=44
4B-\	me-	.	4d\	me-	.	4g\	me-	.	4cc\	me-	.
4B-\	-um	.	4d\	-um	.	4g\	-um	.	4b-\	-um	.
4C\ 4c	es	.	4B-\	es	.	4e\	es	.	4g\	es	.
=45	=45	=45	=45	=45	=45	=45	=45	=45	=45	=45	=45
2F\	tu	.	2A\	tu	.	2f\	tu	.	2f/	tu	.
4r	.	.	4r	.	.	4r	.	.	4r	.	.
!LO:PB:g=original	!	!	!LO:LB:g=original	!	!	!	!	!	!	!	!
=46	=46	=46	=46	=46	=46	=46	=46	=46	=46	=46	=46
*	*	*	*	*	*	*	*	*^	*	*	*
!	!	!LO:DY:b:rj	!	!	!LO:DY:b:rj	!	!	!LO:DY:b:rj	!LO:DY:a:rj	!	!	!LO:DY:a:rj
(4BB-/	al-	f	2B-\	al-	f	2f\	al-	f	f	2dd\	al-	f
4D\)	.	.	.	.	.	.	.	.	.	.	.	.
4E\	-le-	.	4B-\	-le-	.	4f\	-le-	.	.	4dd\	-le-	.
*	*	*	*	*	*	*	*	*v	*v	*	*	*
=47	=47	=47	=47	=47	=47	=47	=47	=47	=47	=47	=47
4F\	-lu-	.	(8A\L	-lu-	.	4f\	-lu-	.	4cc\	-lu-	.
.	.	.	8c\J)	.	.	.	.	.	.	.	.
4F\	-ja	.	(8Bn\L	-ja	.	4f\	-ja	.	4a\	-ja	.
.	.	.	8c\J)	.	.	.	.	.	.	.	.
4r	.	.	8d\L	al-	.	4r	.	.	4r	.	.
.	.	.	8c\J	.	.	.	.	.	.	.	.
=48	=48	=48	=48	=48	=48	=48	=48	=48	=48	=48	=48
4C/	al-	.	2B-\	-le-	.	2e\	al le-	.	2g/	al-	.
(8BBn/L	-le-	.	.	.	.	.	.	.	.	.	.
8C/J)	.	.	.	.	.	.	.	.	.	.	.
(8D/L	-lu-	.	4A\	-lu-	.	4e\	-lu-	.	4g/	-le-	.
8C/J)	.	.	.	.	.	.	.	.	.	.	.
!	!	!	!	!	!	!	!	!	!LO:LB:g=original	!	!
=49	=49	=49	=49	=49	=49	=49	=49	=49	=49	=49	=49
4F\	-ja	.	4A/	-ja	.	4c\	-ja	.	(8a/L	-lu-	.
.	.	.	.	.	.	.	.	.	8f/J)	.	.
4r	.	.	4r	.	.	4r	.	.	(8g/L	-ja	.
.	.	.	.	.	.	.	.	.	8a/J)	.	.
4r	.	.	4r	.	.	4r	.	.	(8b-\L	al	.
.	.	.	.	.	.	.	.	.	8cc\J)	.	.
!	!	!	!LO:PB:g=original	!	!	!LO:LB:g=original	!	!	!	!	!
=50	=50	=50	=50	=50	=50	=50	=50	=50	=50	=50	=50
(4BB-/	al-	.	2B-\	al-	.	2f\	al-	.	2dd\	al-	.
4D/)	.	.	.	.	.	.	.	.	.	.	.
4E\	-le-	.	4B-\	-le-	.	4g\	-le-	.	4dd\	-le-	.
=51	=51	=51	=51	=51	=51	=51	=51	=51	=51	=51	=51
4F\	-lu-	.	(8A\L	-lu-	.	4f\	-lu-	.	4cc\	-lu-	.
.	.	.	8c\J	.	.	.	.	.	.	.	.
4F\	-ja	.	8Bn\L	.	.	4f\	-ja	.	4a\	-ja	.
.	.	.	8c\J	.	.	.	.	.	.	.	.
4r	.	.	8d\L	-ja	.	4r	.	.	4r	.	.
.	.	.	8c\J)	.	.	.	.	.	.	.	.
=52	=52	=52	=52	=52	=52	=52	=52	=52	=52	=52	=52
4C/	al-	.	4B-\	al-	.	4e\	al-	.	4g/	al-	.
(8BBn/L	-le-	.	4B-\	-le-	.	4e\	-le-	.	4g/	-le-	.
8C/J)	.	.	.	.	.	.	.	.	.	.	.
(8D/L	-lu-	.	4B-\	-lu-	.	4e\	-lu-	.	4g/	-lu-	.
8C/J)	.	.	.	.	.	.	.	.	.	.	.
!LO:LB:g=original	!	!	!	!	!	!	!	!	!	!	!
=53	=53	=53	=53	=53	=53	=53	=53	=53	=53	=53	=53
4F\	-ja	.	4A\	-ja	.	4c\	-ja	.	4f/	-ja	.
4r	.	.	4r	.	.	4r	.	.	4r	.	.
!	!	!	!LO:TX:a:t=riten	!	!	!	!	!	!	!	!
4F\	al-	.	4c\	al-	.	4f\	al-	.	4a/	al-	.
=54	=54	=54	=54	=54	=54	=54	=54	=54	=54	=54	=54
!	!	!	!	!	!LO:HP:a	!	!	!	!	!	!
2C/	-le-	<	2c\	-le-	<	2f\	-le-	.	2a/	-le-	.
!	!	!	!	!	!LO:HP:a	!	!	!	!	!	!
4AA/	-lu-	[ >	4c\	-lu-	[ >	4f\	-lu-	.	4a/	-lu-	.
=55	=55	=55	=55	=55	=55	=55	=55	=55	=55	=55	=55
2FF/	-ja	]	2c\	-ja	]	2f\	-ja	.	2a/	-ja	.
4r;	.	.	4r;	.	.	4r;	.	.	4r;	.	.
!LO:LB:g=original	!	!	!LO:LB:g=original	!	!	!LO:PB:g=original	!	!	!LO:PB:g=original	!	!
==	==	==	==	==	==	==	==	==	==	==	==
*-	*-	*-	*-	*-	*-	*-	*-	*-	*-	*-	*-
!!!system-decoration: [(s1,s2,s3,s4)]
!!!ENC: Anastazja Marusiak
!!!END: 2023-10-26
!!!EED: Marta Chmielewska
!!!EEV: 2024-05-02
